build/logo/DionOutline.svg

<svg xmlns="http://www.w3.org/2000/svg" fill="none" viewBox="0 0 24 24" focusable="false"><path d="M0 0H24V24H0z"/><path fill="#74767B" fill-rule="evenodd" d="M10.336 15.9348L10.336 11.999C10.336 10.0143 11.1256 8.11093 12.5313 6.70755C13.9369 5.30416 15.8434 4.51575 17.8312 4.51575L18.2587 4.51575C18.3661 4.51575 18.4692 4.55837 18.5452 4.63423C18.6211 4.71008 18.6638 4.81297 18.6638 4.92025L18.6638 7.23804C18.6638 7.34532 18.6211 7.44821 18.5452 7.52407C18.4692 7.59993 18.3661 7.64254 18.2587 7.64254L14.0917 7.64254C13.9843 7.64254 13.8812 7.68516 13.8052 7.76102C13.7292 7.83688 13.6866 7.93977 13.6866 8.04705L13.6866 11.9727C13.6866 13.9574 12.8969 15.8608 11.4912 17.2642C10.0856 18.6676 8.17916 19.456 6.19129 19.456L5.74158 19.456C5.63412 19.456 5.53107 19.4134 5.45509 19.3375C5.37911 19.2617 5.33643 19.1588 5.33643 19.0515L5.33643 16.7276C5.33643 16.6204 5.37911 16.5175 5.45509 16.4416C5.53107 16.3658 5.63412 16.3231 5.74158 16.3231L9.9369 16.3231C10.0405 16.3217 10.1397 16.2806 10.2139 16.2084C10.2882 16.1361 10.3318 16.0382 10.336 15.9348ZM5.73693 7.6283L8.90893 7.6283C9.65137 7.62963 10.3696 7.36338 10.9333 6.87791C11.497 6.39243 11.8687 5.71993 11.9808 4.98256C11.9902 4.92459 11.9868 4.86526 11.9709 4.80874C11.955 4.75222 11.927 4.69988 11.8888 4.6554C11.8507 4.61092 11.8033 4.57537 11.75 4.55125C11.6967 4.52713 11.6388 4.51502 11.5803 4.51578L5.73693 4.51578C5.63071 4.51578 5.52884 4.55818 5.45373 4.63364C5.37862 4.7091 5.33643 4.81145 5.33643 4.91817L5.33643 7.2259C5.33643 7.33262 5.37862 7.43497 5.45373 7.51044C5.52884 7.5859 5.63071 7.6283 5.73693 7.6283ZM18.2328 16.3435L15.0758 16.3435C14.3289 16.3438 13.6069 16.6135 13.0409 17.1036C12.4749 17.5937 12.1025 18.2717 11.9912 19.0145C11.9818 19.0728 11.9852 19.1325 12.0012 19.1894C12.0171 19.2463 12.0453 19.299 12.0837 19.3438C12.122 19.3885 12.1697 19.4243 12.2233 19.4486C12.2769 19.4729 12.3351 19.485 12.3939 19.4843L18.2328 19.4843C18.3396 19.4843 18.4421 19.4416 18.5176 19.3657C18.5931 19.2897 18.6355 19.1867 18.6355 19.0793L18.6355 16.7485C18.6355 16.6411 18.5931 16.538 18.5176 16.4621C18.4421 16.3861 18.3396 16.3435 18.2328 16.3435Z"/></svg>

<svg xmlns="http://www.w3.org/2000/svg" fill="none" viewBox="0 0 24 24" focusable="false"><path fill="#74767B" fill-rule="evenodd" d="M10.33 15.93v-3.94c0-1.98.79-3.88 2.2-5.29a7.5 7.5 0 0 1 5.3-2.19h.42a.4.4 0 0 1 .29.12.4.4 0 0 1 .12.29v2.31a.4.4 0 0 1-.12.29c-.08.07-.18.12-.29.12h-4.16a.4.4 0 0 0-.29.12c-.08.07-.12.17-.12.28v3.93c0 1.98-.79 3.89-2.19 5.29a7.54 7.54 0 0 1-5.3 2.19h-.45a.4.4 0 0 1-.29-.12.38.38 0 0 1-.12-.28v-2.33c0-.1.04-.21.12-.28a.4.4 0 0 1 .29-.12h4.19c.11 0 .2-.04.28-.12.07-.07.12-.17.12-.27M8.9 7.62H5.73a.4.4 0 0 1-.28-.11.4.4 0 0 1-.12-.29V4.91c0-.1.04-.21.12-.28.07-.08.18-.12.28-.12h5.85c.05 0 .11.01.17.04.05.02.1.06.13.1.04.04.07.1.09.15.01.06.02.12.01.18-.12.73-.49 1.41-1.05 1.89-.57.49-1.28.75-2.03.75m9.33 8.72h-3.16c-.75 0-1.47.27-2.03.76-.57.49-.94 1.17-1.05 1.91-.01.06-.01.12.01.17.01.06.04.11.08.16.04.04.08.08.14.1.05.03.11.04.17.04h5.84c.1 0 .21-.04.28-.12a.4.4 0 0 0 .12-.29v-2.33c0-.1-.04-.21-.12-.28a.38.38 0 0 0-.28-.12"/></svg>
